X:1
T:Ware, LM
T:Ware, LM
T:George Kingsley, 1838
T:Public Domain Courtesy of the Cyber Hymnal™
C:George Kingsley, 1838
Z:Public Domain
Z:Courtesy of the Cyber Hymnal™
%%score ( 1 2 ) ( 3 4 )
L:1/8
Q:1/4=100
M:3/4
K:A
V:1 treble 
V:2 treble 
V:3 bass 
V:4 bass 
V:1
 [CE][CE] [CE] | [DF]2 [CE]2 [EA][Ec] | [EB]4 [EB]2 | [CA][CA] [CA]2 [Fc]2 | e2 B2 [Ee]2 | %5
 [Ec]3 [CA] [CA][CA] | [Ec]3 [DB] [CA][DF] | [CE][CE] [EA][EA] [Ec][Ec] | (e2 B2) [Ee]2 | [Ec]6 |] %10
V:2
 x3 | x6 | x6 | x6 | G4 x2 | x6 | x6 | x6 | G4 x2 | x6 |] %10
V:3
 [A,,A,][A,,A,] [A,,A,] | [A,,A,]2 [A,,A,]2 [C,E,][A,,A,] | [E,G,]4 [E,G,]2 | %3
 [F,A,][F,A,] [F,A,]2 [F,A,]2 | [E,B,]4 [E,G,]2 | [A,,A,]3 [A,,E,] [A,,E,][A,,E,] | %6
 [A,,A,]3 [A,,E,] [A,,E,][A,,A,] | [A,,A,]A, [A,C][A,C] A,A, | [E,B,]4 [E,G,]2 | [A,,A,]6 |] %10
V:4
 x3 | x6 | x6 | x6 | x6 | x6 | x6 | x A, x A, A, x | x6 | x6 |] %10

